assets/img/braze_icons/speedometer-01.svg

<svg fill="none" height="24" viewBox="0 0 24 24" width="24" xmlns="http://www.w3.org/2000/svg"><path clip-rule="evenodd" d="m12 1c-6.07513 0-11 4.92487-11 11 0 6.0751 4.92487 11 11 11 6.0751 0 11-4.9249 11-11 0-6.07513-4.9249-11-11-11zm1 2c0-.55228-.4477-1-1-1s-1 .44772-1 1v2.25c0 .55228.4477 1 1 1s1-.44772 1-1zm0 15.75c0-.5523-.4477-1-1-1s-1 .4477-1 1v2.25c0 .5523.4477 1 1 1s1-.4477 1-1zm-11-6.75c0-.5523.44772-1 1-1h2.25c.55228 0 1 .4477 1 1s-.44772 1-1 1h-2.25c-.55228 0-1-.4477-1-1zm16.75-1c-.5523 0-1 .4477-1 1s.4477 1 1 1h2.25c.5523 0 1-.4477 1-1s-.4477-1-1-1zm-2.6829 5.0671c.3905-.3906 1.0237-.3906 1.4142 0l1.5964 1.5963c.3905.3906.3905 1.0237 0 1.4142-.3905.3906-1.0237.3906-1.4142 0l-1.5964-1.5963c-.3905-.3905-.3905-1.0237 0-1.4142zm-8.13257 1.4126c.39053-.3905.39053-1.0237 0-1.4142-.39052-.3905-1.02369-.3905-1.41421 0l-1.59797 1.5979c-.39053.3906-.39053 1.0237 0 1.4143.39052.3905 1.02369.3905 1.41421 0zm-3.01218-12.48686c.39052-.39052 1.02369-.39052 1.41421 0l1.56281 1.56281c.39052.39052.39052 1.02369 0 1.41421-.39053.39053-1.02369.39053-1.41422 0l-1.5628-1.5628c-.39053-.39053-.39053-1.02369 0-1.41422zm14.15035 1.41921c.3932-.38774.3977-1.02089.01-1.41418-.3878-.39328-1.0209-.39777-1.4142-.01002l-5.0207 4.95c-.0426.04204-.0807.08695-.1142.13415-.1698-.0469-.3488-.072-.5336-.072-1.1046 0-2 .8954-2 2s.8954 2 2 2 2-.8954 2-2c0-.1849-.0251-.3639-.072-.5339.0434-.0308.0849-.0655.124-.104z" fill="#801ed7" fill-rule="evenodd"/></svg>

<svg width="24" height="24" viewBox="0 0 24 24" fill="none" xmlns="http://www.w3.org/2000/svg">
<path fill-rule="evenodd" clip-rule="evenodd" d="M12 1C5.92487 1 1 5.92487 1 12C1 18.0751 5.92487 23 12 23C18.0751 23 23 18.0751 23 12C23 5.92487 18.0751 1 12 1ZM13 3C13 2.44772 12.5523 2 12 2C11.4477 2 11 2.44772 11 3V5.25C11 5.80228 11.4477 6.25 12 6.25C12.5523 6.25 13 5.80228 13 5.25V3ZM13 18.75C13 18.1977 12.5523 17.75 12 17.75C11.4477 17.75 11 18.1977 11 18.75V21C11 21.5523 11.4477 22 12 22C12.5523 22 13 21.5523 13 21V18.75ZM2 12C2 11.4477 2.44772 11 3 11H5.25C5.80228 11 6.25 11.4477 6.25 12C6.25 12.5523 5.80228 13 5.25 13H3C2.44772 13 2 12.5523 2 12ZM18.75 11C18.1977 11 17.75 11.4477 17.75 12C17.75 12.5523 18.1977 13 18.75 13H21C21.5523 13 22 12.5523 22 12C22 11.4477 21.5523 11 21 11H18.75ZM16.0671 16.0671C16.4576 15.6765 17.0908 15.6765 17.4813 16.0671L19.0777 17.6634C19.4682 18.054 19.4682 18.6871 19.0777 19.0776C18.6872 19.4682 18.054 19.4682 17.6635 19.0776L16.0671 17.4813C15.6766 17.0908 15.6766 16.4576 16.0671 16.0671ZM7.93453 17.4797C8.32506 17.0892 8.32506 16.456 7.93453 16.0655C7.54401 15.675 6.91084 15.675 6.52032 16.0655L4.92235 17.6634C4.53182 18.054 4.53182 18.6871 4.92235 19.0777C5.31287 19.4682 5.94604 19.4682 6.33656 19.0777L7.93453 17.4797ZM4.92235 4.99284C5.31287 4.60232 5.94604 4.60232 6.33656 4.99284L7.89937 6.55565C8.28989 6.94617 8.28989 7.57934 7.89937 7.96986C7.50884 8.36039 6.87568 8.36039 6.48515 7.96986L4.92235 6.40706C4.53182 6.01653 4.53182 5.38337 4.92235 4.99284ZM19.0727 6.41205C19.4659 6.02431 19.4704 5.39116 19.0827 4.99787C18.6949 4.60459 18.0618 4.6001 17.6685 4.98785L12.6478 9.93785C12.6052 9.97989 12.5671 10.0248 12.5336 10.072C12.3638 10.0251 12.1848 10 12 10C10.8954 10 10 10.8954 10 12C10 13.1046 10.8954 14 12 14C13.1046 14 14 13.1046 14 12C14 11.8151 13.9749 11.6361 13.928 11.4661C13.9714 11.4353 14.0129 11.4006 14.052 11.3621L19.0727 6.41205Z" fill="#801ED7"/>
</svg>
